lib/assets/icons/tabbar/lm_kf_active.svg

<svg fill="none" height="28" viewBox="0 0 27 28" width="27" xmlns="http://www.w3.org/2000/svg" xmlns:xlink="http://www.w3.org/1999/xlink">
    <mask id="a" fill="#fff">
        <path d="m4.42621 9.00186c-.36115-.15625-.52961-.57724-.34674-.92567.87517-1.66749 2.22932-3.04248 3.89554-3.94282 1.87579-1.0136 4.03799-1.36672 6.13879-1.00255s4.0181 1.42445 5.4432 3.01027c1.4252 1.58582 2.2755 3.60496 2.4141 5.73261.1386 2.1276-.4425 4.24-1.6499 5.9973s-2.9709 3.0574-5.0067 3.691-4.2256.564-6.21702-.1976c-1.76894-.6766-3.29003-1.8643-4.37414-3.4042-.22653-.3217-.11411-.761.22372-.9628s.77279-.0893 1.00356.2295c.91707 1.2666 2.1858 2.2442 3.65592 2.8065 1.69276.6474 3.55406.7066 5.28446.168s3.2294-1.6437 4.2557-3.1374 1.5203-3.2892 1.4024-5.0977c-.1178-1.8085-.8405-3.52475-2.0519-4.87269s-2.8411-2.24919-4.6268-2.55873c-1.7856-.30955-3.6235-.00939-5.21796.85216-1.38475.74826-2.51593 1.8822-3.26092 3.25711-.18747.34598-.60416.51396-.96531.35771z" fill="#fff"/>
    </mask>
    <path d="m21.5 12.5c0 4.9706-4.0294 9-9 9-4.97056 0-9-4.0294-9-9 0-4.97056 4.02944-9 9-9 4.9706 0 9 4.02944 9 9z" fill="#a5e1d2"/>
    <path d="m2.99121 13.774h2.19783 2.19782c.0678 0 .13428-.0189.192-.0547.05773-.0358.10443-.0869.13491-.1479l1.67634-3.3724c.03224-.0671.08398-.1227.14838-.1596s.13841-.0532.21224-.04684c.07384.00637.144.03514.20122.08244.05725.0474.09875.1111.11925.1827l1.6354 5.4789c.0227.0705.0661.1326.1245.1779.0584.0454.1291.0719.2027.0761.0737.0043.1469-.014.21-.0524.0632-.0383.1133-.095.1439-.1625l1.5275-3.5847c.026-.0606.0678-.1131.1209-.1519.0532-.0387.1157-.0624.1811-.0685.0653-.0061.1312.0056.1905.0338.0593.0283.11.0721.1467.1269l1.0857 1.6378h5.3511" stroke="#14555a" stroke-linecap="round" stroke-linejoin="round" stroke-width="1.5"/>
    <path d="m7.97501 4.13337.71308 1.31966zm1.12247 17.23103-.53586 1.401zm-3.70596-12.72025-1.31884-.71461zm-.66818 9.31605-1.22652.8635zm-.64387-9.88401 1.32818.69709zm1.32818.69709c.73698-1.40419 1.87733-2.56207 3.28044-3.32025l-1.42617-2.63933c-1.92932 1.04252-3.49727 2.6346-4.51063 4.5654zm3.28044-3.32025c1.57961-.85356 3.40041-1.15092 5.16951-.84426l.5124-2.95591c-2.4325-.42167-4.93611-.01279-7.10808 1.16084zm5.16951-.84426c1.7691.30667 3.3836 1.19955 4.5838 2.53497l2.2313-2.0053c-1.6502-1.83621-3.8702-3.06391-6.3027-3.48558zm4.5838 2.53497c1.2002 1.33543 1.9162 3.03576 2.0329 4.82746l2.9937-.195c-.1605-2.4636-1.1451-4.80155-2.7953-6.63776zm2.0329 4.82746c.1167 1.7917-.3727 3.5705-1.3894 5.0504l2.4726 1.6988c1.398-2.0347 2.0709-4.4807 1.9105-6.9442zm-1.3894 5.0504c-1.0168 1.4798-2.5018 2.5746-4.2162 3.1082l.8916 2.8644c2.3572-.7337 4.3991-2.239 5.7972-4.2738zm-4.2162 3.1082c-1.7143.5336-3.5584.4749-5.23537-.1665l-1.07171 2.8021c2.30588.8819 4.84138.9625 7.19868.2288zm-5.23537-.1665c-1.48961-.5697-2.77055-1.5699-3.68347-2.8666l-2.45304 1.727c1.2553 1.7831 3.01654 3.1583 5.0648 3.9417zm-4.89769-1.8568c1.08743 1.502 2.59182 2.6612 4.33505 3.3279l1.07171-2.802c-1.19702-.4579-2.23009-1.2539-2.9768-2.2852zm4.33505 3.3279c2.00711.7677 4.21421.8379 6.26611.1992l-.8916-2.8644c-1.409.4385-2.9245.3903-4.3028-.1368zm6.26611.1992c2.0519-.6386 3.8292-1.9489 5.0462-3.7201l-2.4726-1.6989c-.8357 1.2162-2.0562 2.116-3.4652 2.5546zm5.0462-3.7201c1.2169-1.7712 1.8027-3.9003 1.663-6.0447l-2.9937.195c.0959 1.4726-.3063 2.9346-1.1419 4.1508zm1.663-6.0447c-.1397-2.14442-.9967-4.17951-2.4332-5.77784l-2.2313 2.0053c.9864 1.09755 1.5749 2.49504 1.6708 3.96754zm-2.4332-5.77784c-1.4364-1.59834-3.3688-2.667-5.4862-3.03404l-.5124 2.95592c1.454.25204 2.7809.98587 3.7673 2.08342zm-5.4862-3.03404c-2.1173-.36704-4.29665-.01114-6.18725 1.01046l1.42618 2.63932c1.29827-.70151 2.79477-.94591 4.24867-.69386zm-6.18725 1.01046c-1.642.88727-2.98328 2.23183-3.86667 3.86216l2.63768 1.42922c.60659-1.1195 1.52766-2.0428 2.65517-2.65206zm-3.86667 3.86216c.1427-.26337.52229-.48904.94915-.30436l-1.19125 2.75332c1.14916.4972 2.36214-.0644 2.87978-1.01974zm1.64357 10.35566c-.39929.2385-.80495.064-.98061-.1787l2.42996-1.7593c-.6372-.8801-1.91279-1.2796-2.98773-.6376zm.23361-1.1885c.31906.4532.1118.9822-.23361 1.1885l-1.53838-2.5756c-1.02107.6099-1.45317 2.0174-.68105 3.1141zm-3.19857-9.7176c-.62332 1.18762-.01227 2.52717 1.07929 2.9994l1.19125-2.75332c.36926.15977.64339.65734.38582 1.1481z" fill="#14555a" mask="url(#a)"/>
    <path d="m20.6475 21.1475 4.6093 5.1093" stroke="#14555a" stroke-linecap="round" stroke-width="1.5"/>
</svg>

<svg width="27" height="28" viewBox="0 0 27 28" fill="none" xmlns="http://www.w3.org/2000/svg">
    <path d="M21.5 12.5C21.5 17.4706 17.4706 21.5 12.5 21.5C7.52944 21.5 3.5 17.4706 3.5 12.5C3.5 7.52944 7.52944 3.5 12.5 3.5C17.4706 3.5 21.5 7.52944 21.5 12.5Z" fill="#A5E1D2"/>
    <path d="M2.99121 13.774H5.18904H7.38686C7.45466 13.774 7.52114 13.7551 7.57886 13.7193C7.63659 13.6835 7.68329 13.6324 7.71377 13.5714L9.39011 10.199C9.42235 10.1319 9.47409 10.0763 9.53849 10.0394C9.60289 10.0025 9.6769 9.9862 9.75073 9.99256C9.82457 9.99893 9.89473 10.0277 9.95195 10.075C10.0092 10.1224 10.0507 10.1861 10.0712 10.2577L11.7066 15.7366C11.7293 15.8071 11.7727 15.8692 11.8311 15.9145C11.8895 15.9599 11.9602 15.9864 12.0338 15.9906C12.1075 15.9949 12.1807 15.9766 12.2438 15.9382C12.307 15.8999 12.3571 15.8432 12.3877 15.7757L13.9152 12.191C13.9412 12.1304 13.983 12.0779 14.0361 12.0391C14.0893 12.0004 14.1518 11.9767 14.2172 11.9706C14.2825 11.9645 14.3484 11.9762 14.4077 12.0044C14.467 12.0327 14.5177 12.0765 14.5544 12.1313L15.6401 13.7691C15.6401 13.7691 18.1416 13.7691 20.9912 13.7691" stroke="#14555A" stroke-width="1.5" stroke-linecap="round" stroke-linejoin="round"/>
    <mask id="path-3-inside-1" fill="white">
        <path d="M4.42621 9.00186C4.06506 8.84561 3.8966 8.42462 4.07947 8.07619C4.95464 6.4087 6.30879 5.03371 7.97501 4.13337C9.8508 3.11977 12.013 2.76665 14.1138 3.13082C16.2146 3.49499 18.1319 4.55527 19.557 6.14109C20.9822 7.72691 21.8325 9.74605 21.9711 11.8737C22.1097 14.0013 21.5286 16.1137 20.3212 17.871C19.1138 19.6283 17.3503 20.9284 15.3145 21.562C13.2787 22.1956 11.0889 22.126 9.09748 21.3644C7.32854 20.6878 5.80745 19.5001 4.72334 17.9602C4.49681 17.6385 4.60923 17.1992 4.94706 16.9974C5.28489 16.7956 5.71985 16.9081 5.95062 17.2269C6.86769 18.4935 8.13642 19.4711 9.60654 20.0334C11.2993 20.6808 13.1606 20.74 14.891 20.2014C16.6214 19.6628 18.1204 18.5577 19.1467 17.064C20.173 15.5703 20.667 13.7748 20.5491 11.9663C20.4313 10.1578 19.7086 8.44155 18.4972 7.09361C17.2858 5.74567 15.6561 4.84442 13.8704 4.53488C12.0848 4.22533 10.2469 4.52549 8.65244 5.38704C7.26769 6.1353 6.13651 7.26924 5.39152 8.64415C5.20405 8.99013 4.78736 9.15811 4.42621 9.00186Z"/>
    </mask>
    <path d="M7.97501 4.13337L8.68809 5.45303L7.97501 4.13337ZM9.09748 21.3644L8.56162 22.7654L9.09748 21.3644ZM5.39152 8.64415L4.07268 7.92954L5.39152 8.64415ZM4.72334 17.9602L3.49682 18.8237L4.72334 17.9602ZM4.07947 8.07619L5.40765 8.77328L4.07947 8.07619ZM5.40765 8.77328C6.14463 7.36909 7.28498 6.21121 8.68809 5.45303L7.26192 2.8137C5.3326 3.85622 3.76465 5.4483 2.75129 7.3791L5.40765 8.77328ZM8.68809 5.45303C10.2677 4.59947 12.0885 4.30211 13.8576 4.60877L14.37 1.65286C11.9375 1.23119 9.43389 1.64007 7.26192 2.8137L8.68809 5.45303ZM13.8576 4.60877C15.6267 4.91544 17.2412 5.80832 18.4414 7.14374L20.6727 5.13844C19.0225 3.30223 16.8025 2.07453 14.37 1.65286L13.8576 4.60877ZM18.4414 7.14374C19.6416 8.47917 20.3576 10.1795 20.4743 11.9712L23.468 11.7762C23.3075 9.3126 22.3229 6.97465 20.6727 5.13844L18.4414 7.14374ZM20.4743 11.9712C20.591 13.7629 20.1016 15.5417 19.0849 17.0216L21.5575 18.7204C22.9555 16.6857 23.6284 14.2397 23.468 11.7762L20.4743 11.9712ZM19.0849 17.0216C18.0681 18.5014 16.5831 19.5962 14.8687 20.1298L15.7603 22.9942C18.1175 22.2605 20.1594 20.7552 21.5575 18.7204L19.0849 17.0216ZM14.8687 20.1298C13.1544 20.6634 11.3103 20.6047 9.63333 19.9633L8.56162 22.7654C10.8675 23.6473 13.403 23.7279 15.7603 22.9942L14.8687 20.1298ZM9.63333 19.9633C8.14372 19.3936 6.86278 18.3934 5.94986 17.0967L3.49682 18.8237C4.75212 20.6068 6.51336 21.982 8.56162 22.7654L9.63333 19.9633ZM4.73564 18.1065C5.82307 19.6085 7.32746 20.7677 9.07069 21.4344L10.1424 18.6324C8.94538 18.1745 7.91231 17.3785 7.1656 16.3472L4.73564 18.1065ZM9.07069 21.4344C11.0778 22.2021 13.2849 22.2723 15.3368 21.6336L14.4452 18.7692C13.0362 19.2077 11.5207 19.1595 10.1424 18.6324L9.07069 21.4344ZM15.3368 21.6336C17.3887 20.995 19.166 19.6847 20.383 17.9135L17.9104 16.2146C17.0747 17.4308 15.8542 18.3306 14.4452 18.7692L15.3368 21.6336ZM20.383 17.9135C21.5999 16.1423 22.1857 14.0132 22.046 11.8688L19.0523 12.0638C19.1482 13.5364 18.746 14.9984 17.9104 16.2146L20.383 17.9135ZM22.046 11.8688C21.9063 9.72438 21.0493 7.68929 19.6128 6.09096L17.3815 8.09626C18.3679 9.19381 18.9564 10.5913 19.0523 12.0638L22.046 11.8688ZM19.6128 6.09096C18.1764 4.49262 16.244 3.42396 14.1266 3.05692L13.6142 6.01284C15.0682 6.26488 16.3951 6.99871 17.3815 8.09626L19.6128 6.09096ZM14.1266 3.05692C12.0093 2.68988 9.82995 3.04578 7.93935 4.06738L9.36553 6.7067C10.6638 6.00519 12.1603 5.76079 13.6142 6.01284L14.1266 3.05692ZM7.93935 4.06738C6.29735 4.95465 4.95607 6.29921 4.07268 7.92954L6.71036 9.35876C7.31695 8.23926 8.23802 7.31596 9.36553 6.7067L7.93935 4.06738ZM4.07268 7.92954C4.21538 7.66617 4.59497 7.4405 5.02183 7.62518L3.83058 10.3785C4.97974 10.8757 6.19272 10.3141 6.71036 9.35876L4.07268 7.92954ZM5.71625 18.2852C5.31696 18.5237 4.9113 18.3492 4.73564 18.1065L7.1656 16.3472C6.5284 15.4671 5.25281 15.0676 4.17787 15.7096L5.71625 18.2852ZM5.94986 17.0967C6.26892 17.5499 6.06166 18.0789 5.71625 18.2852L4.17787 15.7096C3.1568 16.3195 2.7247 17.727 3.49682 18.8237L5.94986 17.0967ZM2.75129 7.3791C2.12797 8.56672 2.73902 9.90627 3.83058 10.3785L5.02183 7.62518C5.39109 7.78495 5.66522 8.28252 5.40765 8.77328L2.75129 7.3791Z" fill="#14555A" mask="url(#path-3-inside-1)"/>
    <path d="M20.6475 21.1475L25.2568 26.2568" stroke="#14555A" stroke-width="1.5" stroke-linecap="round"/>
</svg>
